modules/open-iconic/icons/align-center.svg

<svg xmlns="http://www.w3.org/2000/svg" width="8" height="8" viewBox="0 0 8 8">
  <path d="M0 0v1h8v-1h-8zm1 2v1h6v-1h-6zm-1 2v1h8v-1h-8zm1 2v1h6v-1h-6z" />
</svg>

<svg xmlns="http://www.w3.org/2000/svg" width="8" height="8"><path d="M0 0v1h8V0H0zm1 2v1h6V2H1zM0 4v1h8V4H0zm1 2v1h6V6H1z"/></svg>
